assets/icons/feather/book-open.svg

<svg viewBox="0 0 24 24" xmlns="http://www.w3.org/2000/svg" fill-rule="evenodd" clip-rule="evenodd" stroke-linecap="round" stroke-linejoin="round"><path d="M2 3h6c2.194 0 4 1.806 4 4v14c0-1.646-1.354-3-3-3H2V3zM22 3h-6c-2.194 0-4 1.806-4 4v14c0-1.646 1.354-3 3-3h7V3z" fill="none" stroke="#fff" stroke-width="2"/></svg>

<?xml version="1.0" encoding="UTF-8" standalone="no"?>
<!DOCTYPE svg PUBLIC "-//W3C//DTD SVG 1.1//EN" "http://www.w3.org/Graphics/SVG/1.1/DTD/svg11.dtd">
<svg width="100%" height="100%" viewBox="0 0 24 24" version="1.1" xmlns="http://www.w3.org/2000/svg" xmlns:xlink="http://www.w3.org/1999/xlink" xml:space="preserve" xmlns:serif="http://www.serif.com/" style="fill-rule:evenodd;clip-rule:evenodd;stroke-linecap:round;stroke-linejoin:round;">
    <path d="M2,3L8,3C10.194,3 12,4.806 12,7L12,21C12,19.354 10.646,18 9,18L2,18L2,3Z" style="fill:none;stroke:white;stroke-width:2px;"/>
    <path d="M22,3L16,3C13.806,3 12,4.806 12,7L12,21C12,19.354 13.354,18 15,18L22,18L22,3Z" style="fill:none;stroke:white;stroke-width:2px;"/>
</svg>
